outputs/icons/audio_video/closed_caption_round.svg

<svg xmlns="http://www.w3.org/2000/svg" width="1200" height="1200" fill="none"><g clip-path="url(#a)"><path fill="#000" d="M950 200H250c-55.5 0-100 45-100 100v600c0 55 44.5 100 100 100h700c55 0 100-45 100-100V300c0-55-45-100-100-100M550 525c0 14-11 25-25 25h-25c-14 0-25-11-25-25H375v150h100c0-14 11-25 25-25h25c14 0 25 11 25 25v25c0 27.5-22.5 50-50 50H350c-27.5 0-50-22.5-50-50V500c0-27.5 22.5-50 50-50h150c27.5 0 50 22.5 50 50zm350 0c0 14-11 25-25 25h-25c-14 0-25-11-25-25H725v150h100c0-14 11-25 25-25h25c14 0 25 11 25 25v25c0 27.5-22.5 50-50 50H700c-27.5 0-50-22.5-50-50V500c0-27.5 22.5-50 50-50h150c27.5 0 50 22.5 50 50z"/></g><defs><clipPath id="a"><path fill="#fff" d="M0 0h1200v1200H0z"/></clipPath></defs></svg>

<svg width="1200" height="1200" viewBox="0 0 1200 1200" fill="none" xmlns="http://www.w3.org/2000/svg"><g clip-path="url(#clip0_231_5132)"><path d="M950 200H250C194.5 200 150 245 150 300V900C150 955 194.5 1000 250 1000H950C1005 1000 1050 955 1050 900V300C1050 245 1005 200 950 200ZM550 525C550 539 539 550 525 550H500C486 550 475 539 475 525H375V675H475C475 661 486 650 500 650H525C539 650 550 661 550 675V700C550 727.5 527.5 750 500 750H350C322.5 750 300 727.5 300 700V500C300 472.5 322.5 450 350 450H500C527.5 450 550 472.5 550 500V525ZM900 525C900 539 889 550 875 550H850C836 550 825 539 825 525H725V675H825C825 661 836 650 850 650H875C889 650 900 661 900 675V700C900 727.5 877.5 750 850 750H700C672.5 750 650 727.5 650 700V500C650 472.5 672.5 450 700 450H850C877.5 450 900 472.5 900 500V525Z" fill="black"/></g><defs><clipPath id="clip0_231_5132"><path width="24" fill="white" d="M0 0H1200V1200H0V0z"/></clipPath></defs></svg>
